contributed-vectors/webnovel.svg

<svg xmlns="http://www.w3.org/2000/svg" width="192" height="192" fill="none"><g clip-path="url(#a)"><g clip-path="url(#b)"><path fill="#FF837D" d="M171.9 32.4c-.3-1-1.5-1.6-2.5-1.3-12.9 4.1-23.3 12.2-23.3 20.1v78.6L119.7 119c-5.2 7-10.1 11.2-19.3 15.8l41.7 17.2c.4.2.7.4 1.1.6l21.9 9c.6.2 1.2.4 1.9.4 2.8 0 5-2.2 5-5V33c0-.2 0-.4-.1-.6Z"/><path fill="#FF837D" d="M171.9 32.4c-.3-1-1.5-1.6-2.5-1.3-12.9 4.1-23.3 12.2-23.3 20.1v78.6L119.7 119c-5.2 7-10.1 11.2-19.3 15.8l41.7 17.2c.4.2.7.4 1.1.6l21.9 9c.6.2 1.2.4 1.9.4 2.8 0 5-2.2 5-5V33c0-.2 0-.4-.1-.6Z"/><path fill="#9ABEFF" d="M121.9 100.3c0 6.7-2.3 12.9-6.7 18.3-3.9 4.8-9.3 9-16.3 12.7l-.5.2-52 21.4-20.5 8.5c-2.5 1-5.5-.2-6.5-2.7-.3-.6-.4-1.2-.4-1.9V33c0-1.1.9-2 2-2 .2 0 .4 0 .6.1 12.9 4.1 23.3 12.2 23.3 20.1v78.7L75 117.5s.1 0 .2-.1l11.3-4.7c4-1.9 7.2-3.8 9-5.4 0 0 .1 0 .1.1 1-.9 1.9-1.7 2.6-2.6 1.3-1.7 1.9-3.1 1.9-4.5 0-3.1-.7-5.2-1.8-6.3-.7-.8-1.6-1.1-2.7-1.1s-2 .4-2.7 1.1c-1.1 1.1-1.8 3.2-1.8 6.3 0 1.4.5 2.7 1.7 4.3-3 2.6-11.4 6.6-19.9 9.5-2.4-4.3-3.7-8.9-3.7-13.8 0-8.5 2.7-15.8 7.7-21.2 4.9-5.3 11.6-8.1 18.7-8.1h.1c7.1 0 13.9 2.9 18.7 8.1 4.9 5.4 7.5 12.8 7.5 21.2Z"/></g></g><defs><clipPath id="a"><path fill="#fff" d="M0 0h192v192H0z"/></clipPath><clipPath id="b"><path fill="#fff" d="M19 31h153v130.8H19z"/></clipPath></defs></svg>

<svg width="192" height="192" viewBox="0 0 192 192" fill="none" xmlns="http://www.w3.org/2000/svg">
<g clip-path="url(#clip0)">
<g clip-path="url(#clip1)">
<path d="M171.9 32.4C171.6 31.4 170.4 30.8 169.4 31.1C156.5 35.2 146.1 43.3 146.1 51.2V129.8L119.7 119C114.5 126 109.6 130.2 100.4 134.8L142.1 152C142.5 152.2 142.8 152.4 143.2 152.6L165.1 161.6C165.7 161.8 166.3 162 167 162C169.8 162 172 159.8 172 157V33C172 32.8 172 32.6 171.9 32.4Z" fill="#FF837D"/>
<path d="M171.9 32.4C171.6 31.4 170.4 30.8 169.4 31.1C156.5 35.2 146.1 43.3 146.1 51.2V129.8L119.7 119C114.5 126 109.6 130.2 100.4 134.8L142.1 152C142.5 152.2 142.8 152.4 143.2 152.6L165.1 161.6C165.7 161.8 166.3 162 167 162C169.8 162 172 159.8 172 157V33C172 32.8 172 32.6 171.9 32.4Z" fill="#FF837D"/>
<path d="M121.9 100.3C121.9 107 119.6 113.2 115.2 118.6C111.3 123.4 105.9 127.6 98.9 131.3L98.4 131.5L46.4 152.9L25.9 161.4C23.4 162.4 20.4 161.2 19.4 158.7C19.1 158.1 19 157.5 19 156.8V33C19 31.9 19.9 31 21 31C21.2 31 21.4 31 21.6 31.1C34.5 35.2 44.9 43.3 44.9 51.2V129.9L75 117.5C75 117.5 75.1 117.5 75.2 117.4L86.5 112.7C90.5 110.8 93.7 108.9 95.5 107.3C95.5 107.3 95.6 107.3 95.6 107.4C96.6 106.5 97.5 105.7 98.2 104.8C99.5 103.1 100.1 101.7 100.1 100.3C100.1 97.2 99.4 95.1 98.3 94C97.6 93.2 96.7 92.9 95.6 92.9C94.5 92.9 93.6 93.3 92.9 94C91.8 95.1 91.1 97.2 91.1 100.3C91.1 101.7 91.6 103 92.8 104.6C89.8 107.2 81.4 111.2 72.9 114.1C70.5 109.8 69.2 105.2 69.2 100.3C69.2 91.8 71.9 84.5 76.9 79.1C81.8 73.8 88.5 71 95.6 71H95.7C102.8 71 109.6 73.9 114.4 79.1C119.3 84.5 121.9 91.9 121.9 100.3Z" fill="#9ABEFF"/>
</g>
</g>
<defs>
<clipPath id="clip0">
<rect width="192" height="192" fill="white"/>
</clipPath>
<clipPath id="clip1">
<rect width="153" height="130.8" fill="white" transform="translate(19 31)"/>
</clipPath>
</defs>
</svg>
